!!!OTL-incipit: ALLEMAL KANN MAN NIT LUSTIG SEYN
!!!ARE: Europa, Mitteleuropa, Deutschland, Schwaben
!!!SCT: Z0254
!!!YEM: Copyright 1995, estate of Helmut Schaffrath.
**kern	**text
*ICvox	*
*M6/8	*
*k[f#c#g#]	*
*A:	*
!LO:TX:a:t=Schwaben.	!
{8.a	Al-
16a	-le-
8a	-mal
8.cc#	kann
16b	man
8a	nit
=1	=1
8.ee	lu-
16e	-ſtig
8e	ſeyn,
4r	.
8r}	.
=2	=2
{8.a	al-
16a	-le-
8a	-mal
8.cc#	hat
16b	man
8a	kein'
=3	=3
4.ee	Ʒeit,
4r	.
8r}	.
=4	=4
{8.dd	al-
16ee	-le-
8ff#	-mal
8ff#	liebt
8ee	man
8dd	ſein
=5	=5
8cc#	Schätʒel
16cc#L	.
16ddJ	.
8ee	nit,
8b	Schätʒel
16bL	.
16cc#J	.
8dd}	nit,
=6	=6
{8a	al-
8a	-le-
8a	-mal
16aqq	.
8g#	hat
8f#	man
8g#	nit
=7	=7
4a	Ʒeit.
8r	.
4r	.
8r}	.
=8	=8
{8.dd	al-
16ee	-le-
8ff#	-mal
8ff#	liebt
8ee	man
8dd	ſein
=9	=9
8cc#	Schätʒel
16cc#L	.
16ddJ	.
8ee	nit,
8b	Schätʒel
16bL	.
16cc#J	.
8dd}	nit,
=10	=10
{8a	al-
8a	-le-
8a	-mal
16aqq	.
8g#	hat
8f#	man
8g#	nit
=11	=11
4a	Ʒeit.
8r	.
4r	.
8r}	.
==	==
!!!AGN: lyrisches Lied, Romanze
!!!ONB: ESAC (Essen Associative Code) Database: ZUCCAL
!!!AMT: compound duple
!!!AIN: vox
!!!EED: Helmut Schaffrath
!!!EEV: 1.0
!!!GTL: IV. Lyrische Lieder.
!!!URL-scan: https://www.digitale-sammlungen.de/de/view/bsb11160571?page=470
!!!ENC: Anna Maria Matuszewska
!!!EEV: 2025/01/30
*-	*-
